logo/soundcloud.svg

<?xml version="1.0" encoding="UTF-8"?>
<svg width="256px" height="145px" viewBox="0 0 256 145" version="1.1" xmlns="http://www.w3.org/2000/svg" xmlns:xlink="http://www.w3.org/1999/xlink" preserveAspectRatio="xMidYMid">
    <defs>
        <linearGradient x1="49.7191011%" y1="-27.7011704%" x2="49.7191011%" y2="100.084483%" id="linearGradient-1">
            <stop stop-color="#F6871F" offset="0%"></stop>
            <stop stop-color="#F57E20" offset="23.93%"></stop>
            <stop stop-color="#F36621" offset="62.62%"></stop>
            <stop stop-color="#F04923" offset="100%"></stop>
        </linearGradient>
        <linearGradient x1="50.2079545%" y1="-25.000033%" x2="50.2079545%" y2="100.195383%" id="linearGradient-2">
            <stop stop-color="#F6871F" offset="0%"></stop>
            <stop stop-color="#F57E20" offset="23.93%"></stop>
            <stop stop-color="#F36621" offset="62.62%"></stop>
            <stop stop-color="#F04923" offset="100%"></stop>
        </linearGradient>
        <linearGradient x1="50.0305882%" y1="-26.1661483%" x2="50.0305882%" y2="100.311149%" id="linearGradient-3">
            <stop stop-color="#F6871F" offset="0%"></stop>
            <stop stop-color="#F57E20" offset="23.93%"></stop>
            <stop stop-color="#F36621" offset="62.62%"></stop>
            <stop stop-color="#F04923" offset="100%"></stop>
        </linearGradient>
        <linearGradient x1="49.9360465%" y1="-23.1964773%" x2="49.9360465%" y2="100.193452%" id="linearGradient-4">
            <stop stop-color="#F6871F" offset="0%"></stop>
            <stop stop-color="#F57E20" offset="23.93%"></stop>
            <stop stop-color="#F36621" offset="62.62%"></stop>
            <stop stop-color="#F04923" offset="100%"></stop>
        </linearGradient>
        <linearGradient x1="49.5253165%" y1="-89.8451915%" x2="49.5253165%" y2="101.504131%" id="linearGradient-5">
            <stop stop-color="#F6871F" offset="0%"></stop>
            <stop stop-color="#F57E20" offset="23.93%"></stop>
            <stop stop-color="#F36621" offset="62.62%"></stop>
            <stop stop-color="#F04923" offset="100%"></stop>
        </linearGradient>
        <linearGradient x1="50.151087%" y1="-13.84615%" x2="50.151087%" y2="100.178769%" id="linearGradient-6">
            <stop stop-color="#F6871F" offset="0%"></stop>
            <stop stop-color="#F57E20" offset="23.93%"></stop>
            <stop stop-color="#F36621" offset="62.62%"></stop>
            <stop stop-color="#F04923" offset="100%"></stop>
        </linearGradient>
        <linearGradient x1="49.6594937%" y1="-95.2380781%" x2="49.6594937%" y2="100.836155%" id="linearGradient-7">
            <stop stop-color="#F6871F" offset="0%"></stop>
            <stop stop-color="#F57E20" offset="23.93%"></stop>
            <stop stop-color="#F36621" offset="62.62%"></stop>
            <stop stop-color="#F04923" offset="100%"></stop>
        </linearGradient>
        <linearGradient x1="49.5962963%" y1="-51.0899673%" x2="49.5962963%" y2="100.373025%" id="linearGradient-8">
            <stop stop-color="#F6871F" offset="0%"></stop>
            <stop stop-color="#F57E20" offset="23.93%"></stop>
            <stop stop-color="#F36621" offset="62.62%"></stop>
            <stop stop-color="#F04923" offset="100%"></stop>
        </linearGradient>
        <linearGradient x1="50.4142857%" y1="-33.2107591%" x2="50.4142857%" y2="100.080323%" id="linearGradient-9">
            <stop stop-color="#F6871F" offset="0%"></stop>
            <stop stop-color="#F57E20" offset="23.93%"></stop>
            <stop stop-color="#F36621" offset="62.62%"></stop>
            <stop stop-color="#F04923" offset="100%"></stop>
        </linearGradient>
        <linearGradient x1="50.0343434%" y1="-7.14284164%" x2="50.0343434%" y2="100.167761%" id="linearGradient-10">
            <stop stop-color="#F6871F" offset="0%"></stop>
            <stop stop-color="#F57E20" offset="23.93%"></stop>
            <stop stop-color="#F36621" offset="62.62%"></stop>
            <stop stop-color="#F04923" offset="100%"></stop>
        </linearGradient>
        <linearGradient x1="50.3245902%" y1="-220.198737%" x2="50.3245902%" y2="147.927152%" id="linearGradient-11">
            <stop stop-color="#F6871F" offset="0%"></stop>
            <stop stop-color="#F57E20" offset="23.93%"></stop>
            <stop stop-color="#F36621" offset="62.62%"></stop>
            <stop stop-color="#F04923" offset="100%"></stop>
        </linearGradient>
        <linearGradient x1="49.1592105%" y1="-121.473836%" x2="49.1592105%" y2="112.576421%" id="linearGradient-12">
            <stop stop-color="#F6871F" offset="0%"></stop>
            <stop stop-color="#F57E20" offset="23.93%"></stop>
            <stop stop-color="#F36621" offset="62.62%"></stop>
            <stop stop-color="#F04923" offset="100%"></stop>
        </linearGradient>
        <linearGradient x1="50.4220779%" y1="-94.4840187%" x2="50.4220779%" y2="103.334164%" id="linearGradient-13">
            <stop stop-color="#F6871F" offset="0%"></stop>
            <stop stop-color="#F57E20" offset="23.93%"></stop>
            <stop stop-color="#F36621" offset="62.62%"></stop>
            <stop stop-color="#F04923" offset="100%"></stop>
        </linearGradient>
        <linearGradient x1="49.9306056%" y1="-1.53385045e-09%" x2="49.9306056%" y2="100.017117%" id="linearGradient-14">
            <stop stop-color="#F7941E" offset="0%"></stop>
            <stop stop-color="#F68B1F" offset="0%"></stop>
            <stop stop-color="#F6871F" offset="0%"></stop>
            <stop stop-color="#F57E20" offset="24.02%"></stop>
            <stop stop-color="#F36621" offset="63.06%"></stop>
            <stop stop-color="#F04923" offset="100%"></stop>
        </linearGradient>
    </defs>
		<g>
				<path d="M109.970428,81.4817121 L108.476265,26.9945525 C108.476265,25.3011673 107.081712,24.0062257 105.487938,24.0062257 C103.794553,24.0062257 102.499611,25.3011673 102.499611,26.9945525 L101.105058,81.4817121 L102.499611,107.679377 C102.499611,109.372763 103.894163,110.667704 105.487938,110.667704 C107.181323,110.667704 108.476265,109.372763 108.476265,107.679377 L109.970428,81.4817121 Z" fill="url(#linearGradient-1)"></path>
				<path d="M99.2124514,81.4817121 L97.5190661,24.9027237 C97.5190661,23.3089494 96.2241245,22.1136187 94.7299611,22.1136187 C93.2357977,22.1136187 91.940856,23.3089494 91.940856,24.9027237 L90.4466926,81.3821012 L91.940856,107.778988 C91.940856,109.372763 93.2357977,110.568093 94.7299611,110.568093 C96.2241245,110.568093 97.5190661,109.372763 97.5190661,107.778988 L99.2124514,81.4817121 Z" fill="url(#linearGradient-2)"></path>
				<path d="M76.0031128,25.3011673 C75.9035019,24.0062257 74.907393,22.9105058 73.6124514,22.9105058 C72.3175097,22.9105058 71.3214008,23.9066148 71.2217899,25.3011673 L69.5284047,81.3821012 L71.2217899,108.177432 C71.2217899,109.472374 72.3175097,110.468482 73.6124514,110.468482 C74.907393,110.468482 75.9035019,109.472374 76.0031128,108.077821 L77.9953307,81.2824903 L76.0031128,25.3011673 Z" fill="url(#linearGradient-3)"></path>
				<path d="M86.7610895,23.4085603 C86.7610895,22.0140078 85.5657588,20.818677 84.1712062,20.818677 C82.7766537,20.818677 81.581323,21.9143969 81.581323,23.4085603 L79.9875486,81.3821012 L81.581323,107.97821 C81.581323,109.372763 82.7766537,110.568093 84.1712062,110.568093 C85.5657588,110.568093 86.6614786,109.472374 86.7610895,107.97821 L88.5540856,81.3821012 L86.7610895,23.4085603 Z" fill="url(#linearGradient-4)"></path>
				<path d="M32.4731518,109.870817 C33.2700389,109.870817 33.8677043,109.273152 33.9673152,108.376654 L36.5571984,81.3821012 L33.9673152,53.4910506 C33.8677043,52.6941634 33.2700389,51.9968872 32.4731518,51.9968872 C31.6762646,51.9968872 31.0785992,52.5945525 30.9789883,53.4910506 L28.6879377,81.3821012 L30.9789883,108.376654 C30.9789883,109.273152 31.6762646,109.870817 32.4731518,109.870817 Z" fill="url(#linearGradient-5)"></path>
				<path d="M120.828016,81.4817121 L119.433463,16.7346304 C119.433463,15.6389105 118.835798,14.6428016 117.9393,14.0451362 C117.441245,13.7463035 116.84358,13.4474708 116.146304,13.4474708 C115.548638,13.4474708 114.950973,13.6466926 114.353307,13.9455253 C113.456809,14.5431907 112.859144,15.5392996 112.859144,16.6350195 L112.859144,17.2326848 L111.663813,81.3821012 L112.859144,107.380545 L112.859144,107.480156 C112.859144,108.177432 113.157977,108.874708 113.656031,109.372763 C114.253696,110.070039 115.150195,110.568093 116.146304,110.568093 C117.042802,110.568093 117.839689,110.16965 118.437354,109.671595 C119.035019,109.07393 119.433463,108.277043 119.433463,107.380545 L119.533074,104.790661 L120.828016,81.4817121 Z" fill="url(#linearGradient-6)"></path>
				<path d="M44.3268482,55.4832685 C44.2272374,54.4871595 43.5299611,53.7898833 42.633463,53.7898833 C41.736965,53.7898833 40.9400778,54.4871595 40.9400778,55.4832685 L38.848249,81.3821012 L40.9400778,108.575875 C41.0396887,109.571984 41.736965,110.269261 42.633463,110.269261 C43.5299611,110.269261 44.3268482,109.571984 44.3268482,108.575875 L46.7175097,81.3821012 L44.3268482,55.4832685 Z" fill="url(#linearGradient-7)"></path>
				<path d="M52.8933852,37.3540856 C51.8972763,37.3540856 51.0007782,38.1509728 51.0007782,39.2466926 L49.0085603,81.3821012 L51.0007782,108.575875 C51.1003891,109.671595 51.8972763,110.468482 52.8933852,110.468482 C53.8894942,110.468482 54.7859922,109.671595 54.7859922,108.575875 L57.0770428,81.3821012 L54.7859922,39.2466926 C54.7859922,38.2505837 53.8894942,37.3540856 52.8933852,37.3540856 Z" fill="url(#linearGradient-8)"></path>
				<path d="M65.2451362,108.575875 L67.336965,81.4817121 L65.2451362,29.6840467 C65.1455253,28.488716 64.2490272,27.5922179 63.0536965,27.5922179 C61.8583658,27.5922179 60.9618677,28.488716 60.8622568,29.6840467 L58.9696498,81.4817121 L60.8622568,108.575875 C60.8622568,109.771206 61.8583658,110.667704 63.0536965,110.667704 C64.2490272,110.767315 65.1455253,109.771206 65.2451362,108.575875 Z" fill="url(#linearGradient-9)"></path>
				<path d="M128.697276,7.8692607 C128.199222,7.57042802 127.601556,7.37120623 126.90428,7.37120623 C126.107393,7.37120623 125.310506,7.67003891 124.71284,8.16809339 C123.915953,8.76575875 123.417899,9.7618677 123.417899,10.8575875 L123.417899,11.2560311 L122.023346,81.581323 L122.720623,94.5307393 L123.417899,107.181323 C123.417899,109.07393 125.011673,110.568093 126.90428,110.568093 C128.796887,110.568093 130.291051,108.974319 130.390661,107.081712 L131.884825,81.4817121 L130.390661,10.8575875 C130.291051,9.56264591 129.693385,8.46692607 128.697276,7.8692607 Z" fill="url(#linearGradient-10)"></path>
				<path d="M2.88871595,96.3237354 C3.38677043,96.3237354 3.78521401,95.9252918 3.8848249,95.3276265 L6.07626459,81.3821012 L3.8848249,67.2373541 C3.78521401,66.6396887 3.38677043,66.2412451 2.88871595,66.2412451 C2.39066148,66.2412451 1.892607,66.6396887 1.892607,67.2373541 L0,81.3821012 L1.892607,95.3276265 C1.892607,95.9252918 2.39066148,96.3237354 2.88871595,96.3237354 Z" fill="url(#linearGradient-11)"></path>
				<path d="M12.351751,104.790661 C12.8498054,104.790661 13.3478599,104.392218 13.4474708,103.794553 L16.3361868,81.3821012 L13.4474708,58.4715953 C13.3478599,57.87393 12.9494163,57.4754864 12.351751,57.4754864 C11.8536965,57.4754864 11.355642,57.87393 11.2560311,58.4715953 L8.76575875,81.3821012 L11.2560311,103.794553 C11.355642,104.392218 11.7540856,104.790661 12.351751,104.790661 Z" fill="url(#linearGradient-12)"></path>
				<path d="M22.3128405,108.874708 C23.0101167,108.874708 23.5081712,108.376654 23.6077821,107.579767 L26.2972763,81.3821012 L23.6077821,54.1883268 C23.5081712,53.4910506 23.0101167,52.8933852 22.3128405,52.8933852 C21.6155642,52.8933852 21.1175097,53.3914397 21.0178988,54.1883268 L18.6272374,81.3821012 L21.0178988,107.579767 C21.1175097,108.277043 21.6155642,108.874708 22.3128405,108.874708 Z" fill="url(#linearGradient-13)"></path>
				<path d="M223.626459,48.0124514 C219.343191,48.0124514 215.259144,48.9089494 211.47393,50.4031128 C208.983658,22.2132296 185.276265,0 156.389105,0 C149.316732,0 142.44358,1.39455253 136.367315,3.78521401 C133.976654,4.68171206 133.378988,5.67782101 133.378988,7.47081712 L133.378988,106.982101 C133.378988,108.874708 134.873152,110.368872 136.765759,110.568093 L223.72607,110.568093 C241.058366,110.568093 255.103502,96.722179 255.103502,79.3898833 C255.003891,62.0575875 240.958755,48.0124514 223.626459,48.0124514 Z" fill="url(#linearGradient-14)"></path>
				<path d="M25.0023346,129.494163 C21.3167315,128.597665 20.3206226,128.199222 20.3206226,126.705058 C20.3206226,125.708949 21.1175097,124.61323 23.6077821,124.61323 C25.6996109,124.61323 27.3929961,125.509728 28.8871595,127.003891 L32.27393,123.716732 C30.0824903,121.425681 27.3929961,120.031128 23.8070039,120.031128 C19.2249027,120.031128 15.5392996,122.621012 15.5392996,126.804669 C15.5392996,131.38677 18.5276265,132.781323 22.8108949,133.677821 C27.1937743,134.67393 27.9906615,135.371206 27.9906615,136.86537 C27.9906615,138.658366 26.6957198,139.355642 23.9066148,139.355642 C21.7151751,139.355642 19.6233463,138.558755 17.9299611,136.666148 L14.5431907,139.654475 C16.3361868,142.244358 19.7229572,143.838132 23.5081712,143.838132 C29.8832685,143.838132 32.5727626,140.849805 32.5727626,136.466926 C32.7719844,131.585992 28.6879377,130.291051 25.0023346,129.494163 Z M46.418677,120.130739 C40.0435798,120.130739 36.3579767,125.011673 36.3579767,132.084047 C36.3579767,139.15642 40.1431907,144.037354 46.418677,144.037354 C52.6941634,144.037354 56.4793774,139.15642 56.4793774,132.084047 C56.4793774,125.011673 52.6941634,120.130739 46.418677,120.130739 Z M46.418677,139.355642 C42.633463,139.355642 41.1392996,136.168093 41.1392996,131.984436 C41.1392996,127.800778 42.7330739,124.61323 46.418677,124.61323 C50.2038911,124.61323 51.6980545,127.800778 51.6980545,131.984436 C51.6980545,136.168093 50.1042802,139.355642 46.418677,139.355642 Z M75.2062257,133.478599 C75.2062257,137.164202 73.4132296,139.455253 70.4249027,139.455253 C67.4365759,139.455253 65.6435798,137.064591 65.6435798,133.378988 L65.6435798,120.429572 L60.9618677,120.429572 L60.9618677,133.478599 C60.9618677,140.25214 64.7470817,144.037354 70.3252918,144.037354 C76.2023346,144.037354 79.688716,140.152529 79.688716,133.478599 L79.688716,120.529183 L75.0070039,120.529183 L75.0070039,133.478599 L75.2062257,133.478599 Z M99.8101167,130.291051 C99.8101167,131.585992 99.9097276,134.474708 99.9097276,135.371206 C99.6108949,134.773541 98.8140078,133.57821 98.3159533,132.781323 L90.048249,120.529183 L85.5657588,120.529183 L85.5657588,143.738521 L90.1478599,143.738521 L90.1478599,133.478599 C90.1478599,132.183658 90.048249,129.294942 90.048249,128.398444 C90.3470817,128.996109 91.1439689,130.19144 91.6420233,130.988327 L100.108949,143.638911 L104.292607,143.638911 L104.292607,120.429572 L99.7105058,120.429572 L99.7105058,130.291051 L99.8101167,130.291051 Z M117.640467,120.429572 L110.368872,120.429572 L110.368872,143.638911 L117.242023,143.638911 C123.218677,143.638911 129.09572,140.152529 129.09572,132.084047 C129.09572,123.51751 124.214786,120.429572 117.640467,120.429572 Z M117.242023,139.15642 L114.950973,139.15642 L114.950973,125.011673 L117.441245,125.011673 C122.322179,125.011673 124.414008,127.402335 124.414008,132.084047 C124.414008,136.267704 122.122957,139.15642 117.242023,139.15642 Z M143.439689,124.71284 C145.531518,124.71284 146.826459,125.609339 147.722957,127.203113 L152.006226,125.210895 C150.512062,122.222568 147.922179,120.031128 143.5393,120.031128 C137.463035,120.031128 133.279377,124.912062 133.279377,131.984436 C133.279377,139.256031 137.363424,143.937743 143.439689,143.937743 C147.623346,143.937743 150.412451,141.945525 152.006226,138.658366 L148.121401,136.367315 C146.92607,138.459144 145.631128,139.355642 143.5393,139.355642 C140.052918,139.355642 138.0607,136.168093 138.0607,131.984436 C138.0607,127.701167 140.052918,124.71284 143.439689,124.71284 Z M160.672374,120.429572 L155.990661,120.429572 L155.990661,143.638911 L169.936187,143.638911 L169.936187,139.056809 L160.672374,139.056809 L160.672374,120.429572 Z M182.188327,120.130739 C175.81323,120.130739 172.127626,125.011673 172.127626,132.084047 C172.127626,139.15642 175.91284,144.037354 182.188327,144.037354 C188.563424,144.037354 192.249027,139.15642 192.249027,132.084047 C192.249027,125.011673 188.563424,120.130739 182.188327,120.130739 Z M182.188327,139.355642 C178.403113,139.355642 176.908949,136.168093 176.908949,131.984436 C176.908949,127.800778 178.502724,124.61323 182.188327,124.61323 C185.973541,124.61323 187.467704,127.800778 187.467704,131.984436 C187.467704,136.168093 185.973541,139.355642 182.188327,139.355642 Z M210.975875,133.478599 C210.975875,137.164202 209.182879,139.455253 206.194553,139.455253 C203.206226,139.455253 201.41323,137.064591 201.41323,133.378988 L201.41323,120.429572 L196.731518,120.429572 L196.731518,133.478599 C196.731518,140.25214 200.516732,144.037354 206.094942,144.037354 C211.971984,144.037354 215.458366,140.152529 215.458366,133.478599 L215.458366,120.529183 L210.776654,120.529183 L210.776654,133.478599 L210.975875,133.478599 Z M228.706615,120.429572 L221.435019,120.429572 L221.435019,143.638911 L228.308171,143.638911 C234.284825,143.638911 240.161868,140.152529 240.161868,132.084047 C240.161868,123.51751 235.280934,120.429572 228.706615,120.429572 Z M228.308171,139.15642 L226.116732,139.15642 L226.116732,125.011673 L228.607004,125.011673 C233.487938,125.011673 235.480156,127.402335 235.480156,132.084047 C235.480156,136.267704 233.189105,139.15642 228.308171,139.15642 Z" fill="#F04923"></path>
		</g>
</svg>

<svg viewBox="0 0 256 145" xmlns="http://www.w3.org/2000/svg" xmlns:xlink="http://www.w3.org/1999/xlink"><defs><linearGradient id="a" x1="49.719%" x2="49.719%" y1="-27.702%" y2="100.084%"><stop offset="0%" stop-color="#F6871F"/><stop offset="23.93%" stop-color="#F57E20"/><stop offset="62.62%" stop-color="#F36621"/><stop offset="100%" stop-color="#F04923"/></linearGradient><linearGradient id="b" x1="50.207%" x2="50.207%" y1="-25.001%" y2="100.195%" xlink:href="#a"/><linearGradient id="c" x1="50.03%" x2="50.03%" y1="-26.167%" y2="100.311%" xlink:href="#a"/><linearGradient id="d" x1="49.936%" x2="49.936%" y1="-23.197%" y2="100.193%" xlink:href="#a"/><linearGradient id="e" x1="49.525%" x2="49.525%" y1="-89.846%" y2="101.504%" xlink:href="#a"/><linearGradient id="f" x1="50.151%" x2="50.151%" y1="-13.847%" y2="100.178%" xlink:href="#a"/><linearGradient id="g" x1="49.659%" x2="49.659%" y1="-95.239%" y2="100.836%" xlink:href="#a"/><linearGradient id="h" x1="49.596%" x2="49.596%" y1="-51.09%" y2="100.373%" xlink:href="#a"/><linearGradient id="i" x1="50.414%" x2="50.414%" y1="-33.211%" y2="100.08%" xlink:href="#a"/><linearGradient id="j" x1="50.034%" x2="50.034%" y1="-7.143%" y2="100.167%" xlink:href="#a"/><linearGradient id="k" x1="50.324%" x2="50.324%" y1="-220.199%" y2="147.927%" xlink:href="#a"/><linearGradient id="l" x1="49.159%" x2="49.159%" y1="-121.474%" y2="112.576%" xlink:href="#a"/><linearGradient id="m" x1="50.422%" x2="50.422%" y1="-94.485%" y2="103.334%" xlink:href="#a"/><linearGradient id="n" x1="49.93%" x2="49.93%" y1="-.001%" y2="100.017%"><stop offset="0%" stop-color="#F7941E"/><stop offset="0%" stop-color="#F68B1F"/><stop offset="0%" stop-color="#F6871F"/><stop offset="24.02%" stop-color="#F57E20"/><stop offset="63.06%" stop-color="#F36621"/><stop offset="100%" stop-color="#F04923"/></linearGradient></defs><path fill="url(#a)" d="M109.97 81.48l-1.5-54.49c0-1.7-1.4-2.99-2.99-2.99 -1.7 0-2.99 1.29-2.99 2.98l-1.4 54.48 1.39 26.19c0 1.69 1.39 2.98 2.98 2.98 1.69 0 2.98-1.3 2.98-2.99l1.49-26.2Z"/><path fill="url(#b)" d="M99.21 81.48l-1.7-56.58c0-1.6-1.3-2.79-2.79-2.79 -1.5 0-2.79 1.19-2.79 2.78l-1.5 56.47 1.49 26.39c0 1.59 1.29 2.78 2.78 2.78 1.49 0 2.78-1.2 2.78-2.79l1.69-26.3Z"/><path fill="url(#c)" d="M76 25.3c-.1-1.3-1.1-2.4-2.4-2.4 -1.3 0-2.3.99-2.4 2.39l-1.7 56.08 1.69 26.79c0 1.29 1.09 2.29 2.39 2.29 1.29 0 2.29-1 2.39-2.4l1.99-26.8 -2-55.99Z"/><path fill="url(#d)" d="M86.76 23.4c0-1.4-1.2-2.59-2.59-2.59 -1.4 0-2.59 1.09-2.59 2.58l-1.6 57.97 1.59 26.59c0 1.39 1.19 2.58 2.58 2.58 1.39 0 2.49-1.1 2.58-2.59l1.79-26.6 -1.8-57.98Z"/><path fill="url(#e)" d="M32.47 109.87c.79 0 1.39-.6 1.49-1.5l2.58-27 -2.59-27.9c-.1-.8-.7-1.5-1.5-1.5s-1.4.59-1.5 1.49l-2.3 27.89 2.29 26.99c0 .89.69 1.49 1.49 1.49Z"/><path fill="url(#f)" d="M120.82 81.48l-1.4-64.75c0-1.1-.6-2.1-1.5-2.69 -.5-.3-1.1-.6-1.8-.6 -.6 0-1.2.19-1.8.49 -.9.59-1.5 1.59-1.5 2.68v.59l-1.2 64.14 1.19 25.99v.09c0 .69.29 1.39.79 1.89 .59.69 1.49 1.19 2.49 1.19 .89 0 1.69-.4 2.29-.9 .59-.6.99-1.4.99-2.3l.09-2.59 1.29-23.31Z"/><path fill="url(#g)" d="M44.32 55.48c-.1-1-.8-1.7-1.7-1.7 -.9 0-1.7.69-1.7 1.69l-2.1 25.89 2.09 27.19c.09.99.79 1.69 1.69 1.69 .89 0 1.69-.7 1.69-1.7l2.39-27.2 -2.4-25.9Z"/><path fill="url(#h)" d="M52.89 37.35c-1 0-1.9.79-1.9 1.89l-2 42.13 1.99 27.19c.09 1.09.89 1.89 1.89 1.89 .99 0 1.89-.8 1.89-1.9l2.29-27.2 -2.3-42.14c0-1-.9-1.9-1.9-1.9Z"/><path fill="url(#i)" d="M65.24 108.57l2.09-27.1 -2.1-51.8c-.1-1.2-1-2.1-2.2-2.1 -1.2 0-2.1.89-2.2 2.09l-1.9 51.79 1.89 27.09c0 1.19.99 2.09 2.19 2.09 1.19.09 2.09-.9 2.19-2.1Z"/><path fill="url(#j)" d="M128.69 7.86c-.5-.3-1.1-.5-1.8-.5 -.8 0-1.6.29-2.2.79 -.8.59-1.3 1.59-1.3 2.68v.39l-1.4 70.32 .69 12.94 .69 12.65c0 1.89 1.59 3.38 3.48 3.38s3.38-1.6 3.48-3.49l1.49-25.6 -1.5-70.63c-.1-1.3-.7-2.4-1.7-2.99Z"/><path fill="url(#k)" d="M2.88 96.32c.49 0 .89-.4.99-1l2.19-13.95 -2.2-14.15c-.1-.6-.5-1-1-1s-1 .39-1 .99l-1.9 14.14 1.89 13.94c0 .59.49.99.99.99Z"/><path fill="url(#l)" d="M12.35 104.79c.49 0 .99-.4 1.09-1l2.88-22.42 -2.89-22.92c-.1-.6-.5-1-1.1-1 -.5 0-1 .39-1.1.99l-2.5 22.91 2.49 22.41c.09.59.49.99 1.09.99Z"/><path fill="url(#m)" d="M22.31 108.87c.69 0 1.19-.5 1.29-1.3l2.68-26.2 -2.69-27.2c-.1-.7-.6-1.3-1.3-1.3 -.7 0-1.2.49-1.3 1.29l-2.4 27.19 2.39 26.19c.09.69.59 1.29 1.29 1.29Z"/><path fill="url(#n)" d="M223.62 48.01c-4.29 0-8.37.89-12.16 2.39 -2.5-28.19-26.2-50.41-55.09-50.41 -7.08 0-13.95 1.39-20.03 3.78 -2.4.89-2.99 1.89-2.99 3.68v99.51c0 1.89 1.49 3.38 3.38 3.58h86.96c17.33 0 31.37-13.85 31.37-31.18 -.1-17.34-14.15-31.38-31.48-31.38Z"/><path fill="#F04923" d="M25 129.49c-3.69-.9-4.69-1.3-4.69-2.79 0-1 .79-2.1 3.28-2.1 2.09 0 3.78.89 5.27 2.39l3.38-3.29c-2.2-2.3-4.89-3.69-8.47-3.69 -4.59 0-8.27 2.58-8.27 6.77 0 4.58 2.98 5.97 7.27 6.87 4.38.99 5.17 1.69 5.17 3.18 0 1.79-1.3 2.49-4.09 2.49 -2.2 0-4.29-.8-5.98-2.69l-3.39 2.98c1.79 2.58 5.17 4.18 8.96 4.18 6.37 0 9.06-2.99 9.06-7.38 .19-4.89-3.89-6.18-7.58-6.98Zm21.41-9.37c-6.38 0-10.07 4.88-10.07 11.95 0 7.07 3.78 11.95 10.06 11.95 6.27 0 10.06-4.89 10.06-11.96 0-7.08-3.79-11.96-10.07-11.96Zm0 19.22c-3.79 0-5.28-3.19-5.28-7.38 0-4.19 1.59-7.38 5.27-7.38 3.78 0 5.27 3.18 5.27 7.37 0 4.18-1.6 7.37-5.28 7.37Zm28.78-5.88c0 3.68-1.8 5.97-4.79 5.97s-4.79-2.4-4.79-6.08V120.4h-4.69v13.04c0 6.77 3.78 10.55 9.36 10.55 5.87 0 9.36-3.89 9.36-10.56v-12.95h-4.69v12.94h.19Zm24.6-3.19c0 1.29.09 4.18.09 5.08 -.3-.6-1.1-1.8-1.6-2.59l-8.27-12.26h-4.49v23.2h4.58v-10.26c0-1.3-.1-4.19-.1-5.09 .29.59 1.09 1.79 1.59 2.58l8.46 12.65h4.18v-23.21h-4.59v9.86h.09Zm17.83-9.87h-7.28v23.2h6.87c5.97 0 11.85-3.49 11.85-11.56 0-8.57-4.89-11.66-11.46-11.66Zm-.4 18.72h-2.3v-14.15h2.49c4.88 0 6.97 2.39 6.97 7.07 0 4.18-2.3 7.07-7.18 7.07Zm26.19-14.45c2.09 0 3.38.89 4.28 2.49l4.28-2c-1.5-2.99-4.09-5.18-8.47-5.18 -6.08 0-10.26 4.88-10.26 11.95 0 7.27 4.08 11.95 10.16 11.95 4.18 0 6.97-2 8.56-5.28l-3.89-2.3c-1.2 2.09-2.5 2.98-4.59 2.98 -3.49 0-5.48-3.19-5.48-7.38 0-4.29 1.99-7.28 5.37-7.28Zm17.23-4.29h-4.69v23.2h13.94v-4.59h-9.27v-18.63Zm21.51-.3c-6.38 0-10.07 4.88-10.07 11.95 0 7.07 3.78 11.95 10.06 11.95 6.37 0 10.06-4.89 10.06-11.96 0-7.08-3.69-11.96-10.07-11.96Zm0 19.22c-3.79 0-5.28-3.19-5.28-7.38 0-4.19 1.59-7.38 5.27-7.38 3.78 0 5.27 3.18 5.27 7.37 0 4.18-1.5 7.37-5.28 7.37Zm28.78-5.88c0 3.68-1.8 5.97-4.79 5.97s-4.79-2.4-4.79-6.08v-12.95h-4.69v13.04c0 6.77 3.78 10.55 9.36 10.55 5.87 0 9.36-3.89 9.36-10.56v-12.95h-4.69v12.94h.19Zm17.73-13.05h-7.28v23.2h6.87c5.97 0 11.85-3.49 11.85-11.56 0-8.57-4.89-11.66-11.46-11.66Zm-.4 18.72h-2.2v-14.15h2.49c4.88 0 6.87 2.39 6.87 7.07 0 4.18-2.3 7.07-7.18 7.07Z"/></svg>
